static/img/kroki/8f6b97242e0b00d810f961c144b5ea86.svg

<?xml version="1.0" encoding="us-ascii" standalone="no"?><svg xmlns="http://www.w3.org/2000/svg" xmlns:xlink="http://www.w3.org/1999/xlink" contentStyleType="text/css" height="998px" preserveAspectRatio="none" style="width:503px;height:998px;" version="1.1" viewBox="0 0 503 998" width="503px" zoomAndPan="magnify"><defs/><g><!--class account--><g id="elem_account"><rect codeLine="22" fill="#3D176E" height="39.7891" id="account" rx="2.5" ry="2.5" style="stroke:#000D19;stroke-width:0.5;" width="107" x="7" y="495.35"/><ellipse cx="22" cy="515.2445" fill="#ADD1B2" rx="11" ry="11" style="stroke:#181818;stroke-width:1.0;"/><path d="M24.9688,520.8852 Q24.3906,521.182 23.75,521.3227 Q23.1094,521.4789 22.4063,521.4789 Q19.9063,521.4789 18.5781,519.8383 Q17.2656,518.182 17.2656,515.057 Q17.2656,511.932 18.5781,510.2758 Q19.9063,508.6195 22.4063,508.6195 Q23.1094,508.6195 23.75,508.7758 Q24.4063,508.932 24.9688,509.2289 L24.9688,511.9477 Q24.3438,511.3695 23.75,511.1039 Q23.1563,510.8227 22.5313,510.8227 Q21.1875,510.8227 20.5,511.9008 Q19.8125,512.9633 19.8125,515.057 Q19.8125,517.1508 20.5,518.2289 Q21.1875,519.2914 22.5313,519.2914 Q23.1563,519.2914 23.75,519.0258 Q24.3438,518.7445 24.9688,518.1664 L24.9688,520.8852 Z " fill="#000000"/><text fill="#D9B8FF" font-family="Helvetica" font-size="17" lengthAdjust="spacing" textLength="65" x="41" y="521.1298">account</text></g><!--class gcp_deprecation_status--><g id="elem_gcp_deprecation_status"><rect codeLine="24" fill="#3D176E" height="179.2734" id="gcp_deprecation_status" rx="2.5" ry="2.5" style="stroke:#000D19;stroke-width:0.5;" width="237" x="143" y="812.53"/><ellipse cx="158" cy="832.4245" fill="#ADD1B2" rx="11" ry="11" style="stroke:#181818;stroke-width:1.0;"/><path d="M160.9688,838.0652 Q160.3906,838.362 159.75,838.5027 Q159.1094,838.6589 158.4063,838.6589 Q155.9063,838.6589 154.5781,837.0183 Q153.2656,835.362 153.2656,832.237 Q153.2656,829.112 154.5781,827.4558 Q155.9063,825.7995 158.4063,825.7995 Q159.1094,825.7995 159.75,825.9558 Q160.4063,826.112 160.9688,826.4089 L160.9688,829.1277 Q160.3438,828.5495 159.75,828.2839 Q159.1563,828.0027 158.5313,828.0027 Q157.1875,828.0027 156.5,829.0808 Q155.8125,830.1433 155.8125,832.237 Q155.8125,834.3308 156.5,835.4089 Q157.1875,836.4714 158.5313,836.4714 Q159.1563,836.4714 159.75,836.2058 Q160.3438,835.9245 160.9688,835.3464 L160.9688,838.0652 Z " fill="#000000"/><text fill="#D9B8FF" font-family="Helvetica" font-size="17" lengthAdjust="spacing" textLength="195" x="177" y="838.3098">gcp_deprecation_status</text><line style="stroke:#000D19;stroke-width:0.5;" x1="144" x2="379" y1="852.3191" y2="852.3191"/><text fill="#D9B8FF" font-family="sans-serif" font-size="14" font-weight="bold" lengthAdjust="spacing" textLength="60" x="154" y="874.3142">deleted</text><text fill="#D9B8FF" font-family="sans-serif" font-size="14" lengthAdjust="spacing" textLength="48" x="214" y="874.3142">: string</text><text fill="#D9B8FF" font-family="sans-serif" font-size="14" font-weight="bold" lengthAdjust="spacing" textLength="91" x="154" y="900.6111">deprecated</text><text fill="#D9B8FF" font-family="sans-serif" font-size="14" lengthAdjust="spacing" textLength="48" x="245" y="900.6111">: string</text><text fill="#D9B8FF" font-family="sans-serif" font-size="14" font-weight="bold" lengthAdjust="spacing" textLength="69" x="154" y="926.9079">obsolete</text><text fill="#D9B8FF" font-family="sans-serif" font-size="14" lengthAdjust="spacing" textLength="48" x="223" y="926.9079">: string</text><text fill="#D9B8FF" font-family="sans-serif" font-size="14" font-weight="bold" lengthAdjust="spacing" textLength="99" x="154" y="953.2048">replacement</text><text fill="#D9B8FF" font-family="sans-serif" font-size="14" lengthAdjust="spacing" textLength="48" x="253" y="953.2048">: string</text><text fill="#D9B8FF" font-family="sans-serif" font-size="14" font-weight="bold" lengthAdjust="spacing" textLength="40" x="154" y="979.5017">state</text><text fill="#D9B8FF" font-family="sans-serif" font-size="14" lengthAdjust="spacing" textLength="48" x="194" y="979.5017">: string</text></g><!--class gcp_project--><g id="elem_gcp_project"><rect codeLine="31" fill="#3D176E" height="39.7891" id="gcp_project" rx="2.5" ry="2.5" style="stroke:#000D19;stroke-width:0.5;" width="136" x="133.5" y="712.74"/><ellipse cx="148.5" cy="732.6345" fill="#ADD1B2" rx="11" ry="11" style="stroke:#181818;stroke-width:1.0;"/><path d="M151.4688,738.2752 Q150.8906,738.572 150.25,738.7127 Q149.6094,738.8689 148.9063,738.8689 Q146.4063,738.8689 145.0781,737.2283 Q143.7656,735.572 143.7656,732.447 Q143.7656,729.322 145.0781,727.6658 Q146.4063,726.0095 148.9063,726.0095 Q149.6094,726.0095 150.25,726.1658 Q150.9063,726.322 151.4688,726.6189 L151.4688,729.3377 Q150.8438,728.7595 150.25,728.4939 Q149.6563,728.2127 149.0313,728.2127 Q147.6875,728.2127 147,729.2908 Q146.3125,730.3533 146.3125,732.447 Q146.3125,734.5408 147,735.6189 Q147.6875,736.6814 149.0313,736.6814 Q149.6563,736.6814 150.25,736.4158 Q150.8438,736.1345 151.4688,735.5564 L151.4688,738.2752 Z " fill="#000000"/><text fill="#D9B8FF" font-family="Helvetica" font-size="17" lengthAdjust="spacing" textLength="94" x="167.5" y="738.5198">gcp_project</text></g><!--class gcp_resource--><g id="elem_gcp_resource"><rect codeLine="33" fill="#3D176E" height="152.9766" id="gcp_resource" rx="2.5" ry="2.5" style="stroke:#000D19;stroke-width:0.5;" width="348" x="148.5" y="438.76"/><ellipse cx="259.25" cy="458.6545" fill="#ADD1B2" rx="11" ry="11" style="stroke:#181818;stroke-width:1.0;"/><path d="M262.2188,464.2952 Q261.6406,464.592 261,464.7327 Q260.3594,464.8889 259.6563,464.8889 Q257.1563,464.8889 255.8281,463.2483 Q254.5156,461.592 254.5156,458.467 Q254.5156,455.342 255.8281,453.6858 Q257.1563,452.0295 259.6563,452.0295 Q260.3594,452.0295 261,452.1858 Q261.6563,452.342 262.2188,452.6389 L262.2188,455.3577 Q261.5938,454.7795 261,454.5139 Q260.4063,454.2327 259.7813,454.2327 Q258.4375,454.2327 257.75,455.3108 Q257.0625,456.3733 257.0625,458.467 Q257.0625,460.5608 257.75,461.6389 Q258.4375,462.7014 259.7813,462.7014 Q260.4063,462.7014 261,462.4358 Q261.5938,462.1545 262.2188,461.5764 L262.2188,464.2952 Z " fill="#000000"/><text fill="#D9B8FF" font-family="Helvetica" font-size="17" lengthAdjust="spacing" textLength="108" x="284.75" y="464.5398">gcp_resource</text><line style="stroke:#000D19;stroke-width:0.5;" x1="149.5" x2="495.5" y1="478.5491" y2="478.5491"/><text fill="#D9B8FF" font-family="sans-serif" font-size="14" font-weight="bold" lengthAdjust="spacing" textLength="151" x="159.5" y="500.5442">deprecation_status</text><text fill="#D9B8FF" font-family="sans-serif" font-size="14" lengthAdjust="spacing" textLength="175" x="310.5" y="500.5442">: gcp_deprecation_status</text><text fill="#D9B8FF" font-family="sans-serif" font-size="14" font-weight="bold" lengthAdjust="spacing" textLength="89" x="159.5" y="526.8411">description</text><text fill="#D9B8FF" font-family="sans-serif" font-size="14" lengthAdjust="spacing" textLength="48" x="248.5" y="526.8411">: string</text><text fill="#D9B8FF" font-family="sans-serif" font-size="14" font-weight="bold" lengthAdjust="spacing" textLength="128" x="159.5" y="553.1379">label_fingerprint</text><text fill="#D9B8FF" font-family="sans-serif" font-size="14" lengthAdjust="spacing" textLength="48" x="287.5" y="553.1379">: string</text><text fill="#D9B8FF" font-family="sans-serif" font-size="14" font-weight="bold" lengthAdjust="spacing" textLength="27" x="159.5" y="579.4348">link</text><text fill="#D9B8FF" font-family="sans-serif" font-size="14" lengthAdjust="spacing" textLength="48" x="186.5" y="579.4348">: string</text></g><!--class resource--><g id="elem_resource"><rect codeLine="39" fill="#3D176E" height="310.7578" id="resource" rx="2.5" ry="2.5" style="stroke:#000D19;stroke-width:0.5;" width="227" x="77" y="7"/><ellipse cx="145.75" cy="26.8945" fill="#ADD1B2" rx="11" ry="11" style="stroke:#181818;stroke-width:1.0;"/><path d="M148.7188,32.5352 Q148.1406,32.832 147.5,32.9727 Q146.8594,33.1289 146.1563,33.1289 Q143.6563,33.1289 142.3281,31.4883 Q141.0156,29.832 141.0156,26.707 Q141.0156,23.582 142.3281,21.9258 Q143.6563,20.2695 146.1563,20.2695 Q146.8594,20.2695 147.5,20.4258 Q148.1563,20.582 148.7188,20.8789 L148.7188,23.5977 Q148.0938,23.0195 147.5,22.7539 Q146.9063,22.4727 146.2813,22.4727 Q144.9375,22.4727 144.25,23.5508 Q143.5625,24.6133 143.5625,26.707 Q143.5625,28.8008 144.25,29.8789 Q144.9375,30.9414 146.2813,30.9414 Q146.9063,30.9414 147.5,30.6758 Q148.0938,30.3945 148.7188,29.8164 L148.7188,32.5352 Z " fill="#000000"/><text fill="#D9B8FF" font-family="Helvetica" font-size="17" lengthAdjust="spacing" textLength="71" x="171.25" y="32.7798">resource</text><line style="stroke:#000D19;stroke-width:0.5;" x1="78" x2="303" y1="46.7891" y2="46.7891"/><text fill="#D9B8FF" font-family="sans-serif" font-size="14" font-weight="bold" lengthAdjust="spacing" textLength="29" x="88" y="68.7842">age</text><text fill="#D9B8FF" font-family="sans-serif" font-size="14" lengthAdjust="spacing" textLength="66" x="117" y="68.7842">: duration</text><text fill="#D9B8FF" font-family="sans-serif" font-size="14" font-weight="bold" lengthAdjust="spacing" textLength="43" x="88" y="95.0811">atime</text><text fill="#D9B8FF" font-family="sans-serif" font-size="14" lengthAdjust="spacing" textLength="70" x="131" y="95.0811">: datetime</text><text fill="#D9B8FF" font-family="sans-serif" font-size="14" font-weight="bold" lengthAdjust="spacing" textLength="43" x="88" y="121.3779">ctime</text><text fill="#D9B8FF" font-family="sans-serif" font-size="14" lengthAdjust="spacing" textLength="70" x="131" y="121.3779">: datetime</text><text fill="#D9B8FF" font-family="sans-serif" font-size="14" font-weight="bold" lengthAdjust="spacing" textLength="14" x="88" y="147.6748">id</text><text fill="#D9B8FF" font-family="sans-serif" font-size="14" lengthAdjust="spacing" textLength="48" x="102" y="147.6748">: string</text><text fill="#D9B8FF" font-family="sans-serif" font-size="14" font-weight="bold" lengthAdjust="spacing" textLength="33" x="88" y="173.9717">kind</text><text fill="#D9B8FF" font-family="sans-serif" font-size="14" lengthAdjust="spacing" textLength="48" x="121" y="173.9717">: string</text><text fill="#D9B8FF" font-family="sans-serif" font-size="14" font-weight="bold" lengthAdjust="spacing" textLength="90" x="88" y="200.2686">last_access</text><text fill="#D9B8FF" font-family="sans-serif" font-size="14" lengthAdjust="spacing" textLength="66" x="178" y="200.2686">: duration</text><text fill="#D9B8FF" font-family="sans-serif" font-size="14" font-weight="bold" lengthAdjust="spacing" textLength="90" x="88" y="226.5654">last_update</text><text fill="#D9B8FF" font-family="sans-serif" font-size="14" lengthAdjust="spacing" textLength="66" x="178" y="226.5654">: duration</text><text fill="#D9B8FF" font-family="sans-serif" font-size="14" font-weight="bold" lengthAdjust="spacing" textLength="48" x="88" y="252.8623">mtime</text><text fill="#D9B8FF" font-family="sans-serif" font-size="14" lengthAdjust="spacing" textLength="70" x="136" y="252.8623">: datetime</text><text fill="#D9B8FF" font-family="sans-serif" font-size="14" font-weight="bold" lengthAdjust="spacing" textLength="43" x="88" y="279.1592">name</text><text fill="#D9B8FF" font-family="sans-serif" font-size="14" lengthAdjust="spacing" textLength="48" x="131" y="279.1592">: string</text><text fill="#D9B8FF" font-family="sans-serif" font-size="14" font-weight="bold" lengthAdjust="spacing" textLength="34" x="88" y="305.4561">tags</text><text fill="#D9B8FF" font-family="sans-serif" font-size="14" lengthAdjust="spacing" textLength="171" x="122" y="305.4561">: dictionary[string, string]</text></g><!--reverse link resource to account--><g id="link_resource_account"><path codeLine="51" d="M125.95,337.6 C102.55,400.76 79.07,464.14 67.64,494.97 " fill="none" id="resource-backto-account" style="stroke:#FFAF37;stroke-width:2.0;"/><polygon fill="none" points="119.68,335.37,133.2,319.04,132.81,340.23,119.68,335.37" style="stroke:#FFAF37;stroke-width:2.0;"/></g><!--reverse link account to gcp_project--><g id="link_account_gcp_project"><path codeLine="52" d="M84.35,552.68 C114.49,598.72 165.27,676.29 188.81,712.25 " fill="none" id="account-backto-gcp_project" style="stroke:#FFAF37;stroke-width:2.0;"/><polygon fill="none" points="78.11,556.93,73.01,536.36,89.82,549.26,78.11,556.93" style="stroke:#FFAF37;stroke-width:2.0;"/></g><!--link gcp_project to gcp_deprecation_status--><g id="link_gcp_project_gcp_deprecation_status"><path codeLine="53" d="M208.38,752.85 C213.3,766.58 220.32,786.18 227.65,806.64 " fill="none" id="gcp_project-to-gcp_deprecation_status" style="stroke:#FFAF37;stroke-width:2.0;"/><polygon fill="#FFAF37" points="229.62,811.15,230.3467,801.328,227.932,806.4436,222.8164,804.0288,229.62,811.15" style="stroke:#FFAF37;stroke-width:2.0;"/></g><!--reverse link gcp_resource to gcp_project--><g id="link_gcp_resource_gcp_project"><path codeLine="54" d="M269.63,610.37 C248.18,648.55 225.43,689.04 212.4,712.24 " fill="none" id="gcp_resource-backto-gcp_project" style="stroke:#FFAF37;stroke-width:2.0;"/><polygon fill="none" points="263.94,607.19,279.84,593.19,276.15,614.05,263.94,607.19" style="stroke:#FFAF37;stroke-width:2.0;"/></g><!--link gcp_resource to gcp_deprecation_status--><g id="link_gcp_resource_gcp_deprecation_status"><path codeLine="55" d="M311.77,592.14 C305.09,638.52 296.14,699 287.5,752.53 C284.66,770.1 281.5,788.83 278.38,806.84 " fill="none" id="gcp_resource-to-gcp_deprecation_status" style="stroke:#FFAF37;stroke-width:2.0;"/><polygon fill="#FFAF37" points="277.42,811.41,282.8838,803.2157,278.2652,806.482,274.999,801.8633,277.42,811.41" style="stroke:#FFAF37;stroke-width:2.0;"/></g><!--reverse link resource to gcp_resource--><g id="link_resource_gcp_resource"><path codeLine="56" d="M256.07,337.67 C269.39,373.08 282.74,408.55 293.93,438.31 " fill="none" id="resource-backto-gcp_resource" style="stroke:#FFAF37;stroke-width:2.0;"/><polygon fill="none" points="249.18,340.23,248.69,319.04,262.28,335.3,249.18,340.23" style="stroke:#FFAF37;stroke-width:2.0;"/></g><!--SRC=[XPD1Yzim48Nl-HM2lOKQaYvjDaifR0EblIobsrifOIoD7JMs94PobxIx_xsIxGHPTfAR_TxdcJSQUIS5CgoDEx0Qwnp9pknUAWC4DNiWqiyRNMbYDqK1nUqgDJzhvQu2Zr0Z-uBL7tIIGqhys4c-LsWjUnjPdu3lIzAD4brvHw2ijr2vYDfKOEs3SoJpnc4KHgppkw98oRJepQrOhjxZ2DCaa7faiLY8vJf5hhQwEFU9U99_aItZGtlK3aSnHorQwcBAG4GXHuCU_RCPlu4GKfNiNQHzxpAHGXheJpiG-ZdG1LGsRcCT4cftCBWPJONhEr6i9k6lvs0UJeu1vzvoxD_ijLTARhO23I479xNQMWUkiHwOpmLMw53Cv_U-0VcGhTQXYQnpgmCy40bD1HnhV_C6UcWHat4KG_etyZGWeTKDSUnZfMb3hUavMjnoaYQ8WnGLv5Xj2_-2PBmsp5X9jP-8E0W2PJk5QAXj6HGdwqxp4uPdh_49JGvFp-zH9Dcis_fT-NyxwT0wZH7z2KPEFT57GJrSYOEogoXv-0peyBFptlJCBp_gQSWFBrcM7U_Cx7XtEZLQrYnUN9PzFBUBmIQdgvpi2sKcIXob_m00]--></g></svg>

<svg xmlns="http://www.w3.org/2000/svg" width="503" height="998" preserveAspectRatio="none" style="width:503px;height:998px"><rect width="107" height="39.789" x="7" y="495.35" fill="#3D176E" rx="2.5" ry="2.5" style="stroke:#000d19;stroke-width:.5"/><circle cx="22" cy="515.245" r="11" fill="#ADD1B2" style="stroke:#181818;stroke-width:1"/><path d="M24.969 520.885q-.578.297-1.219.438-.64.156-1.344.156-2.5 0-3.828-1.64-1.312-1.657-1.312-4.782t1.312-4.781q1.328-1.656 3.828-1.656.703 0 1.344.156.656.156 1.219.453v2.719q-.625-.578-1.219-.844-.594-.281-1.219-.281-1.343 0-2.031 1.078-.688 1.062-.688 3.156 0 2.094.688 3.172.688 1.062 2.031 1.062.625 0 1.219-.265.594-.281 1.219-.86v2.72Z"/><text x="41" y="521.13" fill="#D9B8FF" font-family="Helvetica" font-size="17" textLength="65">account</text><rect width="237" height="179.273" x="143" y="812.53" fill="#3D176E" rx="2.5" ry="2.5" style="stroke:#000d19;stroke-width:.5"/><circle cx="158" cy="832.424" r="11" fill="#ADD1B2" style="stroke:#181818;stroke-width:1"/><path d="M160.969 838.065q-.578.297-1.219.438-.64.156-1.344.156-2.5 0-3.828-1.64-1.312-1.657-1.312-4.782t1.312-4.781q1.328-1.657 3.828-1.657.703 0 1.344.157.656.156 1.219.453v2.719q-.625-.579-1.219-.844-.594-.281-1.219-.281-1.344 0-2.031 1.078-.688 1.062-.688 3.156 0 2.094.688 3.172.688 1.062 2.031 1.062.625 0 1.219-.265.594-.282 1.219-.86v2.72Z"/><text x="177" y="838.31" fill="#D9B8FF" font-family="Helvetica" font-size="17" textLength="195">gcp_deprecation_status</text><path d="M144 852.319h235" style="stroke:#000d19;stroke-width:.5"/><text x="154" y="874.314" fill="#D9B8FF" font-family="sans-serif" font-size="14" font-weight="bold" textLength="60">deleted</text><text x="214" y="874.314" fill="#D9B8FF" font-family="sans-serif" font-size="14" textLength="48">: string</text><text x="154" y="900.611" fill="#D9B8FF" font-family="sans-serif" font-size="14" font-weight="bold" textLength="91">deprecated</text><text x="245" y="900.611" fill="#D9B8FF" font-family="sans-serif" font-size="14" textLength="48">: string</text><text x="154" y="926.908" fill="#D9B8FF" font-family="sans-serif" font-size="14" font-weight="bold" textLength="69">obsolete</text><text x="223" y="926.908" fill="#D9B8FF" font-family="sans-serif" font-size="14" textLength="48">: string</text><text x="154" y="953.205" fill="#D9B8FF" font-family="sans-serif" font-size="14" font-weight="bold" textLength="99">replacement</text><text x="253" y="953.205" fill="#D9B8FF" font-family="sans-serif" font-size="14" textLength="48">: string</text><text x="154" y="979.502" fill="#D9B8FF" font-family="sans-serif" font-size="14" font-weight="bold" textLength="40">state</text><text x="194" y="979.502" fill="#D9B8FF" font-family="sans-serif" font-size="14" textLength="48">: string</text><rect width="136" height="39.789" x="133.5" y="712.74" fill="#3D176E" rx="2.5" ry="2.5" style="stroke:#000d19;stroke-width:.5"/><circle cx="148.5" cy="732.635" r="11" fill="#ADD1B2" style="stroke:#181818;stroke-width:1"/><path d="M151.469 738.275q-.578.297-1.219.438-.64.156-1.344.156-2.5 0-3.828-1.64-1.312-1.657-1.312-4.782t1.312-4.781q1.328-1.657 3.828-1.657.703 0 1.344.157.656.156 1.219.453v2.719q-.625-.578-1.219-.844-.594-.281-1.219-.281-1.344 0-2.031 1.078-.688 1.062-.688 3.156 0 2.094.688 3.172.688 1.062 2.031 1.062.625 0 1.219-.265.594-.282 1.219-.86v2.72Z"/><text x="167.5" y="738.52" fill="#D9B8FF" font-family="Helvetica" font-size="17" textLength="94">gcp_project</text><rect width="348" height="152.977" x="148.5" y="438.76" fill="#3D176E" rx="2.5" ry="2.5" style="stroke:#000d19;stroke-width:.5"/><circle cx="259.25" cy="458.654" r="11" fill="#ADD1B2" style="stroke:#181818;stroke-width:1"/><path d="M262.219 464.295q-.578.297-1.219.438-.64.156-1.344.156-2.5 0-3.828-1.64-1.312-1.657-1.312-4.782t1.312-4.781q1.328-1.656 3.828-1.656.703 0 1.344.156.656.156 1.219.453v2.719q-.625-.579-1.219-.844-.594-.281-1.219-.281-1.344 0-2.031 1.078-.688 1.062-.688 3.156 0 2.094.688 3.172.688 1.062 2.031 1.062.625 0 1.219-.265.594-.281 1.219-.86v2.72Z"/><text x="284.75" y="464.54" fill="#D9B8FF" font-family="Helvetica" font-size="17" textLength="108">gcp_resource</text><path d="M149.5 478.549h346" style="stroke:#000d19;stroke-width:.5"/><text x="159.5" y="500.544" fill="#D9B8FF" font-family="sans-serif" font-size="14" font-weight="bold" textLength="151">deprecation_status</text><text x="310.5" y="500.544" fill="#D9B8FF" font-family="sans-serif" font-size="14" textLength="175">: gcp_deprecation_status</text><text x="159.5" y="526.841" fill="#D9B8FF" font-family="sans-serif" font-size="14" font-weight="bold" textLength="89">description</text><text x="248.5" y="526.841" fill="#D9B8FF" font-family="sans-serif" font-size="14" textLength="48">: string</text><text x="159.5" y="553.138" fill="#D9B8FF" font-family="sans-serif" font-size="14" font-weight="bold" textLength="128">label_fingerprint</text><text x="287.5" y="553.138" fill="#D9B8FF" font-family="sans-serif" font-size="14" textLength="48">: string</text><text x="159.5" y="579.435" fill="#D9B8FF" font-family="sans-serif" font-size="14" font-weight="bold" textLength="27">link</text><text x="186.5" y="579.435" fill="#D9B8FF" font-family="sans-serif" font-size="14" textLength="48">: string</text><rect width="227" height="310.758" x="77" y="7" fill="#3D176E" rx="2.5" ry="2.5" style="stroke:#000d19;stroke-width:.5"/><circle cx="145.75" cy="26.895" r="11" fill="#ADD1B2" style="stroke:#181818;stroke-width:1"/><path d="M148.719 32.535q-.578.297-1.219.438-.64.156-1.344.156-2.5 0-3.828-1.64-1.312-1.657-1.312-4.782t1.312-4.781q1.328-1.656 3.828-1.656.703 0 1.344.156.656.156 1.219.453v2.719q-.625-.578-1.219-.844-.594-.281-1.219-.281-1.344 0-2.031 1.078-.688 1.062-.688 3.156 0 2.094.688 3.172.688 1.062 2.031 1.062.625 0 1.219-.265.594-.281 1.219-.86v2.72Z"/><text x="171.25" y="32.78" fill="#D9B8FF" font-family="Helvetica" font-size="17" textLength="71">resource</text><path d="M78 46.789h225" style="stroke:#000d19;stroke-width:.5"/><text x="88" y="68.784" fill="#D9B8FF" font-family="sans-serif" font-size="14" font-weight="bold" textLength="29">age</text><text x="117" y="68.784" fill="#D9B8FF" font-family="sans-serif" font-size="14" textLength="66">: duration</text><text x="88" y="95.081" fill="#D9B8FF" font-family="sans-serif" font-size="14" font-weight="bold" textLength="43">atime</text><text x="131" y="95.081" fill="#D9B8FF" font-family="sans-serif" font-size="14" textLength="70">: datetime</text><text x="88" y="121.378" fill="#D9B8FF" font-family="sans-serif" font-size="14" font-weight="bold" textLength="43">ctime</text><text x="131" y="121.378" fill="#D9B8FF" font-family="sans-serif" font-size="14" textLength="70">: datetime</text><text x="88" y="147.675" fill="#D9B8FF" font-family="sans-serif" font-size="14" font-weight="bold" textLength="14">id</text><text x="102" y="147.675" fill="#D9B8FF" font-family="sans-serif" font-size="14" textLength="48">: string</text><text x="88" y="173.972" fill="#D9B8FF" font-family="sans-serif" font-size="14" font-weight="bold" textLength="33">kind</text><text x="121" y="173.972" fill="#D9B8FF" font-family="sans-serif" font-size="14" textLength="48">: string</text><text x="88" y="200.269" fill="#D9B8FF" font-family="sans-serif" font-size="14" font-weight="bold" textLength="90">last_access</text><text x="178" y="200.269" fill="#D9B8FF" font-family="sans-serif" font-size="14" textLength="66">: duration</text><text x="88" y="226.565" fill="#D9B8FF" font-family="sans-serif" font-size="14" font-weight="bold" textLength="90">last_update</text><text x="178" y="226.565" fill="#D9B8FF" font-family="sans-serif" font-size="14" textLength="66">: duration</text><text x="88" y="252.862" fill="#D9B8FF" font-family="sans-serif" font-size="14" font-weight="bold" textLength="48">mtime</text><text x="136" y="252.862" fill="#D9B8FF" font-family="sans-serif" font-size="14" textLength="70">: datetime</text><text x="88" y="279.159" fill="#D9B8FF" font-family="sans-serif" font-size="14" font-weight="bold" textLength="43">name</text><text x="131" y="279.159" fill="#D9B8FF" font-family="sans-serif" font-size="14" textLength="48">: string</text><text x="88" y="305.456" fill="#D9B8FF" font-family="sans-serif" font-size="14" font-weight="bold" textLength="34">tags</text><text x="122" y="305.456" fill="#D9B8FF" font-family="sans-serif" font-size="14" textLength="171">: dictionary[string, string]</text><g fill="none"><path d="M125.95 337.6c-23.4 63.16-46.88 126.54-58.31 157.37" style="stroke:#ffaf37;stroke-width:2"/><path d="m119.68 335.37 13.52-16.33-.39 21.19-13.13-4.86z" style="stroke:#ffaf37;stroke-width:2"/></g><path fill="none" d="m84.35 552.68 104.46 159.57M78.11 556.93l-5.1-20.57 16.81 12.9-11.71 7.67zm130.27 195.92c4.92 13.73 11.94 33.33 19.27 53.79" style="stroke:#ffaf37;stroke-width:2"/><path fill="#FFAF37" d="m229.62 811.15.727-9.822-2.415 5.116-5.116-2.415 6.804 7.121z" style="stroke:#ffaf37;stroke-width:2"/><g fill="none"><path d="M269.63 610.37c-21.45 38.18-44.2 78.67-57.23 101.87" style="stroke:#ffaf37;stroke-width:2"/><path d="m263.94 607.19 15.9-14-3.69 20.86-12.21-6.86z" style="stroke:#ffaf37;stroke-width:2"/></g><path fill="none" d="M311.77 592.14c-6.68 46.38-15.63 106.86-24.27 160.39-2.84 17.57-6 36.3-9.12 54.31" style="stroke:#ffaf37;stroke-width:2"/><path fill="#FFAF37" d="m277.42 811.41 5.464-8.194-4.619 3.266-3.266-4.619 2.421 9.547z" style="stroke:#ffaf37;stroke-width:2"/><path fill="none" d="M256.07 337.67c13.32 35.41 26.67 70.88 37.86 100.64m-44.75-98.08-.49-21.19 13.59 16.26-13.1 4.93z" style="stroke:#ffaf37;stroke-width:2"/></svg>
